X: 10422
M: 6/8
L: 1/8
K: D
g |\
fed fag | fda fdB | AFA dfa |
gfg e2g |\
fed faf | gbg faf | fed ege | fdd d2 |]\
g |\
fdf ece | dBd AGF | EFA dfa | gfg e2g |\
fdf edc | dBd AFA | DFA d2e | fdd d2 |]


